icons/repo-push-16.svg

<svg width="16" height="16" viewBox="0 0 16 16" fill="none" xmlns="http://www.w3.org/2000/svg">
<path fill-rule="evenodd" clip-rule="evenodd" d="M1 2.5C1 1.11929 2.11929 0 3.5 0H12.25C12.6642 0 13 0.335786 13 0.75V4.25C13 4.66421 12.6642 5 12.25 5C11.8358 5 11.5 4.66421 11.5 4.25V1.5H3.5C2.94772 1.5 2.5 1.94772 2.5 2.5V9.20802C2.80623 9.07422 3.14445 9 3.5 9H6.75C7.16421 9 7.5 9.33579 7.5 9.75C7.5 10.1642 7.16421 10.5 6.75 10.5H3.5C2.94772 10.5 2.5 10.9477 2.5 11.5C2.5 12.0523 2.94772 12.5 3.5 12.5H9.25C9.66421 12.5 10 12.8358 10 13.25C10 13.6642 9.66421 14 9.25 14H3.5C2.11929 14 1 12.8807 1 11.5V2.5ZM14.2294 10.2901C14.5223 10.583 14.9972 10.583 15.2901 10.2901C15.583 9.9972 15.583 9.52233 15.2901 9.22944L12.7854 6.72472C12.4925 6.43182 12.0176 6.43182 11.7247 6.72472L9.22 9.22943C8.92711 9.52233 8.92711 9.9972 9.22 10.2901C9.51289 10.583 9.98777 10.583 10.2807 10.2901L11.5049 9.06587V15.25C11.5049 15.6642 11.8407 16 12.2549 16C12.6691 16 13.0049 15.6642 13.0049 15.25V9.06554L14.2294 10.2901Z" fill="#24292E"/>
</svg>

<svg xmlns="http://www.w3.org/2000/svg" width="16" height="16" viewBox="0 0 16 16"><path fill-rule="evenodd" d="M1 2.5A2.5 2.5 0 013.5 0h8.75a.75.75 0 01.75.75v3.5a.75.75 0 01-1.5 0V1.5h-8a1 1 0 00-1 1v6.708A2.492 2.492 0 013.5 9h3.25a.75.75 0 010 1.5H3.5a1 1 0 100 2h5.75a.75.75 0 010 1.5H3.5A2.5 2.5 0 011 11.5v-9zm13.23 7.79a.75.75 0 001.06-1.06l-2.505-2.505a.75.75 0 00-1.06 0L9.22 9.229a.75.75 0 001.06 1.061l1.225-1.224v6.184a.75.75 0 001.5 0V9.066l1.224 1.224z"/></svg>
